X:42
T:Br\"annvinspolska efter Hultkl\"appen
R:polska J
A:H\"alsingland, Bergsj\"o
Z:id:hn-jp-42
M:3/4
L:1/16
K:A
A4 AcBc AcBc | A2A2 BABd c4 | A4 AcBc AcBc | A2A2 BABd c4 |
B4 Bdcd Bdcd | B2B2 cBce d4 | c2ce agae dcBA | cAce agae dcBA |
Adfd Acec B2e2 | E2GB B2A2 A4 :|
|: ABcd e2c2 A3c | e2e2 fedc d4 | E2GB d2BG E2GB | e2ea gfed c2B2 |
ABcd e2c2 A3c | e2e2 fedc d4 | E2GB d2BG E2GB | e2ea gfed c2B2 |
ABcd e2a2 f2ed | cBAG B2A2 A4 :|

